default/Dev.svg

<svg width="24" height="24" viewBox="0 0 24 24" fill="none" xmlns="http://www.w3.org/2000/svg">
<path d="M6.71022 8.35276L2 11.1553V12.4586L6.68613 15.2496L7.55349 13.9463L3.63834 11.8012L7.55349 9.60987L6.71022 8.35276Z" fill="none"/>
<path d="M10.2111 16.7143L15.2586 6.65739L13.7889 6L8.72935 16.0569L10.2111 16.7143Z" fill="none"/>
<path d="M17.2898 8.35276L16.4465 9.66754L20.3496 11.8012L16.4465 14.004L17.3018 15.2496L22 12.4586V11.1438L17.2898 8.35276Z" fill="none"/>
</svg>

<svg fill="currentColor" width="24" height="24" xmlns="http://www.w3.org/2000/svg">
<path d="M6.71 8.353 2 11.155v1.304l4.686 2.79.867-1.303-3.915-2.145L7.553 9.61 6.71 8.353zM10.211 16.714 15.26 6.657 13.789 6l-5.06 10.057 1.482.657zM17.29 8.353l-.843 1.315L20.35 11.8l-3.904 2.203.856 1.246L22 12.459v-1.315l-4.71-2.791z"/>
</svg>
